src/assets/svgs/refactor/bridge-copy.svg

<svg fill="none" height="22" viewBox="0 0 22 22" width="22" xmlns="http://www.w3.org/2000/svg"><g fill="#101010"><path d="m19.4219 22h-11.68752c-1.42175 0-2.57813-1.1564-2.57813-2.5781v-11.68752c0-1.42175 1.15638-2.57813 2.57813-2.57813h11.68752c1.4217 0 2.5781 1.15638 2.5781 2.57813v11.68752c0 1.4217-1.1564 2.5781-2.5781 2.5781zm-11.68752-15.125c-.47404 0-.85938.38534-.85938.85938v11.68752c0 .474.38534.8593.85938.8593h11.68752c.474 0 .8593-.3853.8593-.8593v-11.68752c0-.47404-.3853-.85938-.8593-.85938z"/><path d="m2.78884 16.8438h-.21072c-1.42174 0-2.57812-1.1564-2.57812-2.5782v-11.68748c0-1.42174 1.15638-2.57812 2.57812-2.57812h11.68748c1.4218 0 2.5782 1.15638 2.5782 2.57812v.21038c0 .47506-.3847.85972-.8594.85972s-.8594-.38466-.8594-.85938v-.21072c0-.47403-.3853-.85937-.8594-.85937h-11.68748c-.47403 0-.85937.38534-.85937.85937v11.68748c0 .4741.38534.8594.85937.8594h.21072c.47472 0 .85938.3847.85938.8594s-.38466.8594-.85938.8594z"/></g></svg>

<svg width="22" height="22" viewBox="0 0 22 22" fill="none" xmlns="http://www.w3.org/2000/svg">
<path d="M19.4219 22H7.73438C6.31263 22 5.15625 20.8436 5.15625 19.4219V7.73438C5.15625 6.31263 6.31263 5.15625 7.73438 5.15625H19.4219C20.8436 5.15625 22 6.31263 22 7.73438V19.4219C22 20.8436 20.8436 22 19.4219 22ZM7.73438 6.875C7.26034 6.875 6.875 7.26034 6.875 7.73438V19.4219C6.875 19.8959 7.26034 20.2812 7.73438 20.2812H19.4219C19.8959 20.2812 20.2812 19.8959 20.2812 19.4219V7.73438C20.2812 7.26034 19.8959 6.875 19.4219 6.875H7.73438Z" fill="#101010"/>
<path d="M2.78884 16.8438H2.57812C1.15638 16.8438 0 15.6874 0 14.2656V2.57812C0 1.15638 1.15638 0 2.57812 0H14.2656C15.6874 0 16.8438 1.15638 16.8438 2.57812V2.7885C16.8438 3.26356 16.4591 3.64822 15.9844 3.64822C15.5097 3.64822 15.125 3.26356 15.125 2.78884V2.57812C15.125 2.10409 14.7397 1.71875 14.2656 1.71875H2.57812C2.10409 1.71875 1.71875 2.10409 1.71875 2.57812V14.2656C1.71875 14.7397 2.10409 15.125 2.57812 15.125H2.78884C3.26356 15.125 3.64822 15.5097 3.64822 15.9844C3.64822 16.4591 3.26356 16.8438 2.78884 16.8438Z" fill="#101010"/>
</svg>
